Newaita-dark/emblems/48/emblem-synchronizing.svg

<svg height="48" viewBox="0 0 48 48" width="48" xmlns="http://www.w3.org/2000/svg"><path d="m339.175944-114.842898c-1.791496-1.874821-3.957956-3.41634-6.291066-4.49957-66.910277-32.121933-149.4024-20.164741-204.772112 35.163309-55.369713 55.369712-67.285241 137.861834-35.163309 204.772111 3.166364 6.916007 9.832394 11.540565 17.415004 12.165505 7.582609.624941 14.873579-2.916388 19.123174-9.207454 4.291256-6.291066 4.832871-14.373627 1.416531-21.206308-24.539323-51.120118-15.748496-113.947452 26.997422-156.735032 42.745918-42.745918 105.573251-51.495083 156.735032-26.95576 9.165792 4.541233 20.331392 1.874821 26.372482-6.416054 6.082752-8.249212 5.291161-19.706451-1.833158-27.080747zm0 0" fill="none" stroke="#424242" stroke-linecap="round" stroke-linejoin="round" stroke-width="82" transform="matrix(.093759 0 0 .093759 0 20.158175)"/><path d="m31.800781 9.390625c-.167969-.175781-.371093-.320313-.589843-.421875-6.273438-3.011719-14.007813-1.890625-19.199219 3.296875-5.191407 5.191406-6.308594 12.925781-3.296875 19.199219.296875.648437.921875 1.082031 1.632812 1.140625.710938.058593 1.394532-.273438 1.792969-.863281.402344-.589844.453125-1.347657.132813-1.988282-2.300782-4.792968-1.476563-10.683594 2.53125-14.695312 4.007812-4.007813 9.898437-4.828125 14.695312-2.527344.859375.425781 1.90625.175781 2.472656-.601562.570313-.773438.496094-1.847657-.171875-2.539063zm0 0" fill="#fafafa"/><path d="m412.627263-41.391579c-7.499284-6.791018-18.789873-7.29097-26.872434-1.208218-8.082562 6.124415-10.665648 17.123365-6.166078 26.205831 24.539323 51.161781 15.790159 113.989115-26.955759 156.735033-42.787581 42.745918-105.614914 51.536745-156.735033 26.997421-6.83268-3.374677-14.915242-2.833062-21.206308 1.416532s-9.790732 11.582227-9.165791 19.123174c.583277 7.582609 5.249498 14.248639 12.123842 17.415003 66.910277 32.121933 149.402399 20.206404 204.772112-35.163308 55.32805-55.369713 67.285241-137.861835 35.163309-204.772112-1.208218-2.541424-2.874726-4.832872-4.95786-6.749356zm0 0" fill="none" stroke="#424242" stroke-linecap="round" stroke-linejoin="round" stroke-width="82" transform="matrix(.093759 0 0 .093759 0 20.158175)"/><path d="m38.6875 16.277344c-.703125-.636719-1.761719-.683594-2.519531-.113282-.757813.574219-1 1.605469-.578125 2.457032 2.300781 4.796875 1.480468 10.6875-2.527344 14.695312-4.011719 4.007813-9.902344 4.832032-14.695312 2.53125-.640626-.316406-1.398438-.265625-1.988282.132813-.589844.398437-.917968 1.085937-.859375 1.792969.054688.710937.492188 1.335937 1.136719 1.632812 6.273438 3.011719 14.007812 1.894531 19.199219-3.296875 5.1875-5.191406 6.308593-12.925781 3.296875-19.199219-.113282-.238281-.269532-.453125-.464844-.632812zm0 0" fill="#fafafa"/></svg>

<?xml version="1.0" encoding="UTF-8"?>
<svg xmlns="http://www.w3.org/2000/svg" xmlns:xlink="http://www.w3.org/1999/xlink" width="48px" height="48px" viewBox="0 0 48 48" version="1.1">
<g id="surface1">
<path style="fill:none;stroke-width:82;stroke-linecap:round;stroke-linejoin:round;stroke:rgb(25.882354%,25.882354%,25.882354%);stroke-opacity:1;stroke-miterlimit:4;" d="M 339.175944 -114.842898 C 337.384448 -116.717719 335.217988 -118.259238 332.884878 -119.342468 C 265.974601 -151.464401 183.482478 -139.507209 128.112766 -84.179159 C 72.743053 -28.809447 60.827525 53.682675 92.949457 120.592952 C 96.115821 127.508959 102.781851 132.133517 110.364461 132.758457 C 117.94707 133.383398 125.23804 129.842069 129.487635 123.551003 C 133.778891 117.259937 134.320506 109.177376 130.904166 102.344695 C 106.364843 51.224577 115.15567 -11.602757 157.901588 -54.390337 C 200.647506 -97.136255 263.474839 -105.88542 314.63662 -81.346097 C 323.802412 -76.804864 334.968012 -79.471276 341.009102 -87.762151 C 347.091854 -96.011363 346.300263 -107.468602 339.175944 -114.842898 Z M 339.175944 -114.842898 " transform="matrix(0.093759,0,0,0.093759,0,20.158175)"/>
<path style=" stroke:none;fill-rule:nonzero;fill:rgb(98.039216%,98.039216%,98.039216%);fill-opacity:1;" d="M 31.800781 9.390625 C 31.632812 9.214844 31.429688 9.070312 31.210938 8.96875 C 24.9375 5.957031 17.203125 7.078125 12.011719 12.265625 C 6.820312 17.457031 5.703125 25.191406 8.714844 31.464844 C 9.011719 32.113281 9.636719 32.546875 10.347656 32.605469 C 11.058594 32.664062 11.742188 32.332031 12.140625 31.742188 C 12.542969 31.152344 12.59375 30.394531 12.273438 29.753906 C 9.972656 24.960938 10.796875 19.070312 14.804688 15.058594 C 18.8125 11.050781 24.703125 10.230469 29.5 12.53125 C 30.359375 12.957031 31.40625 12.707031 31.972656 11.929688 C 32.542969 11.15625 32.46875 10.082031 31.800781 9.390625 Z M 31.800781 9.390625 "/>
<path style="fill:none;stroke-width:82;stroke-linecap:round;stroke-linejoin:round;stroke:rgb(25.882354%,25.882354%,25.882354%);stroke-opacity:1;stroke-miterlimit:4;" d="M 412.627263 -41.391579 C 405.127979 -48.182597 393.83739 -48.682549 385.754829 -42.599797 C 377.672267 -36.475382 375.089181 -25.476432 379.588751 -16.393966 C 404.128074 34.767815 395.37891 97.595149 352.632992 140.341067 C 309.845411 183.086985 247.018078 191.877812 195.897959 167.338488 C 189.065279 163.963811 180.982717 164.505426 174.691651 168.75502 C 168.400585 173.004614 164.900919 180.337247 165.52586 187.878194 C 166.109137 195.460803 170.775358 202.126833 177.649702 205.293197 C 244.559979 237.41513 327.052101 225.499601 382.421814 170.129889 C 437.749864 114.760176 449.707055 32.268054 417.585123 -34.642223 C 416.376905 -37.183647 414.710397 -39.475095 412.627263 -41.391579 Z M 412.627263 -41.391579 " transform="matrix(0.093759,0,0,0.093759,0,20.158175)"/>
<path style=" stroke:none;fill-rule:nonzero;fill:rgb(98.039216%,98.039216%,98.039216%);fill-opacity:1;" d="M 38.6875 16.277344 C 37.984375 15.640625 36.925781 15.59375 36.167969 16.164062 C 35.410156 16.738281 35.167969 17.769531 35.589844 18.621094 C 37.890625 23.417969 37.070312 29.308594 33.0625 33.316406 C 29.050781 37.324219 23.160156 38.148438 18.367188 35.847656 C 17.726562 35.53125 16.96875 35.582031 16.378906 35.980469 C 15.789062 36.378906 15.460938 37.066406 15.519531 37.773438 C 15.574219 38.484375 16.011719 39.109375 16.65625 39.40625 C 22.929688 42.417969 30.664062 41.300781 35.855469 36.109375 C 41.042969 30.917969 42.164062 23.183594 39.152344 16.910156 C 39.039062 16.671875 38.882812 16.457031 38.6875 16.277344 Z M 38.6875 16.277344 "/>
</g>
</svg>
